dist/assets/img/icons/phone.svg

<svg width="16" height="17" viewBox="0 0 16 17" fill="none" xmlns="http://www.w3.org/2000/svg">
<g clip-path="url(#clip0_2_124)">
<g opacity="0.5">
<path d="M10.74 16.37C9.56003 16.37 8.45003 16.03 7.40003 15.46C6.39003 14.9 5.49003 14.19 4.66003 13.39C3.79003 12.55 2.99003 11.65 2.27003 10.67C1.59003 9.75001 0.990026 8.78001 0.560026 7.71001C0.240026 6.88001 0.0400264 6.03001 2.64335e-05 5.14001C-0.0399736 3.97001 0.250026 2.90001 0.910026 1.94001C1.21003 1.50001 1.59003 1.13001 2.01003 0.800006C2.21003 0.640006 2.39003 0.470006 2.59003 0.310006C3.13003 -0.129994 3.69003 -0.089994 4.19003 0.390006C4.58003 0.770006 4.87003 1.21001 5.15003 1.66001C5.33003 1.95001 5.51003 2.23001 5.67003 2.53001C5.89003 2.93001 6.04003 3.35001 6.05003 3.81001C6.05003 4.24001 5.89003 4.61001 5.56003 4.89001C5.17003 5.23001 4.76003 5.55001 4.37003 5.88001C4.01003 6.19001 3.89003 6.60001 3.96003 7.06001C4.07003 7.69001 4.38003 8.24001 4.74003 8.76001C5.27003 9.51001 5.86003 10.22 6.53003 10.86C6.97003 11.28 7.43003 11.69 8.00003 11.96C8.34003 12.12 8.69003 12.21 9.06003 12.11C9.31003 12.05 9.51003 11.9 9.69003 11.72C10 11.43 10.3 11.14 10.62 10.86C11.16 10.38 11.76 10.33 12.4 10.63C12.8 10.82 13.15 11.07 13.48 11.37C13.89 11.74 14.31 12.11 14.73 12.49C14.93 12.68 15.08 12.91 15.18 13.17C15.33 13.55 15.29 13.91 15 14.2C14.39 14.82 13.78 15.42 12.99 15.81C12.29 16.16 11.55 16.36 10.74 16.35V16.37Z" fill="white"/>
</g>
</g>
<defs>
<clipPath id="clip0_2_124">
<rect width="15.26" height="16.37" fill="white"/>
</clipPath>
</defs>
</svg>

<svg width="16" height="17" fill="none" xmlns="http://www.w3.org/2000/svg"><g clip-path="url(#clip0_2_124)"><path d="M10.74 16.37c-1.18 0-2.29-.34-3.34-.91-1.01-.56-1.91-1.27-2.74-2.07-.87-.84-1.67-1.74-2.39-2.72C1.59 9.75.99 8.78.56 7.71.24 6.88.04 6.03 0 5.14c-.04-1.17.25-2.24.91-3.2.3-.44.68-.81 1.1-1.14.2-.16.38-.33.58-.49.54-.44 1.1-.4 1.6.08.39.38.68.82.96 1.27.18.29.36.57.52.87.22.4.37.82.38 1.28 0 .43-.16.8-.49 1.08-.39.34-.8.66-1.19.99-.36.31-.48.72-.41 1.18.11.63.42 1.18.78 1.7a14.3 14.3 0 001.79 2.1c.44.42.9.83 1.47 1.1.34.16.69.25 1.06.15.25-.06.45-.21.63-.39.31-.29.61-.58.93-.86.54-.48 1.14-.53 1.78-.23.4.19.75.44 1.08.74.41.37.83.74 1.25 1.12.2.19.35.42.45.68.15.38.11.74-.18 1.03-.61.62-1.22 1.22-2.01 1.61-.7.35-1.44.55-2.25.54v.02z" fill="#fff" opacity=".5"/></g><defs><clipPath id="clip0_2_124"><path fill="#fff" d="M0 0h15.26v16.37H0z"/></clipPath></defs></svg>
